X: 11208
T: Dunphy's
R: hornpipe
M: 4/4
K: Gmajor
|:(3DEF|"G"GD"g"BA GB"g"dg|"C"fe"c"e^d ecAG|"D"FA"d"DE FG"d"Ac|BG"d"AF GF"d"ED|
"G"GD"g"BA GB"g"dg|"C"fe"c"e^d ecAG|"D"FA"d"dB cD"d"FG|(3ABA "d"GF "G"G2:|
|:Bc|"G"d2"g"Bd gd"g"Bd|(3gfg "g"af gd"g"Bd|gg"g"fg ed"g"^cd|"C"(3efe d^c "D"d2 "d"ef|
"G"g2"g"dc (3BdB "g"G^d|"C"ecAG "D"(3FGA "d"DF|"G"GB"g"dB "C"cD"c"FG|"D"(3ABA "d"GF "G"G2:|

